X: 6
T:An Dro
R:an dro
S:Yann-Fach Perroches
O:Brittany
Z:Lesl
M:C|
L:1/8
K:Em
E2B2 B2AB|c2B2 AGFG| A2F2 B2AG|FGEF G2F2|
E2B2 B2AB|c2B2 AGFG| A2F2 B2AG|FEFG E4:||
|:e2e2 f2gf|e2e2 fefg|a2f2 b2ag|fgef g2f2|
e2e2 f2gf|e2e2 fefg|a2f2 b2ag|fefg e4:|

